X: 41625
T: Up Mullahoran
R: polka
M: 2/4
K: Adorian
|:Bc/B/ AB/A/|GE EG|Bc/B/ AB|d2 ed|
Bc/B/ AB/A/|GE EG|A/B/A/G/ AG|EF GA:|
|:e2 e>d|ef gd|Bg dB|A2 A/B/c/d/|
e2 e>d|ef gd|Bg dB|1 A2 ag/f/:|2 A2 A2||

